packages/icons/src/share-fill.svg

<svg width="24" height="24" viewBox="0 0 24 24" fill="none" xmlns="http://www.w3.org/2000/svg">
<path d="M17.5 15.62C16.7403 15.62 16.052 15.8749 15.4931 16.2842L8.9658 12.485C8.98637 12.3437 9 12.195 9 12.04C9 11.885 8.98635 11.7362 8.96576 11.5948L15.4095 7.83826C15.9919 8.27527 16.711 8.54004 17.5 8.54004C19.4361 8.54004 21 6.97618 21 5.04004C21 3.1039 19.4361 1.54004 17.5 1.54004C15.5639 1.54004 14 3.1039 14 5.04004C14 5.19511 14.0137 5.34391 14.0342 5.48527L7.59053 9.24182C7.00811 8.80481 6.28905 8.54004 5.5 8.54004C3.56386 8.54004 2 10.1039 2 12.04C2 13.9762 3.56386 15.54 5.5 15.54C6.28891 15.54 7.00787 15.2754 7.59024 14.8385L14.1056 18.6452C14.0892 18.7744 14.08 18.9065 14.08 19.04C14.08 20.9262 15.6139 22.46 17.5 22.46C19.3861 22.46 20.92 20.9262 20.92 19.04C20.92 17.1539 19.3861 15.62 17.5 15.62Z" fill="black"/>
</svg>

<svg xmlns="http://www.w3.org/2000/svg" width="24" height="24" fill="none" viewBox="0 0 24 24">
  <path fill="#000" d="M17.5 15.62c-.76 0-1.448.255-2.007.664l-6.527-3.799c.02-.141.034-.29.034-.445 0-.155-.014-.304-.034-.445l6.444-3.757a3.465 3.465 0 0 0 2.09.702c1.936 0 3.5-1.564 3.5-3.5s-1.564-3.5-3.5-3.5a3.496 3.496 0 0 0-3.5 3.5c0 .155.014.304.034.445L7.591 9.242A3.465 3.465 0 0 0 5.5 8.54a3.496 3.496 0 0 0-3.5 3.5c0 1.936 1.564 3.5 3.5 3.5.789 0 1.508-.265 2.09-.701l6.516 3.806c-.017.13-.026.262-.026.395a3.423 3.423 0 0 0 3.42 3.42 3.423 3.423 0 0 0 3.42-3.42 3.423 3.423 0 0 0-3.42-3.42Z"/>
</svg>
